src/lib/packages/icons/src/assets/line/eye-closed.svg

<svg width="24" height="24" viewBox="0 0 24 24" fill="none" xmlns="http://www.w3.org/2000/svg">
<path d="M19.0062 13.149L20.625 15.5851C20.854 15.9301 20.7601 16.3961 20.4151 16.6251C20.2871 16.7101 20.144 16.7501 20.001 16.7501C19.758 16.7501 19.52 16.6321 19.375 16.4151L17.816 14.0702C17.052 14.5802 16.152 15.014 15.105 15.315L15.7271 17.8192C15.8281 18.2212 15.582 18.6281 15.18 18.7281C15.119 18.7431 15.0591 18.7501 14.9981 18.7501C14.6621 18.7501 14.355 18.522 14.271 18.181L13.637 15.627C13.118 15.699 12.5801 15.7501 11.9991 15.7501C11.4181 15.7501 10.8801 15.699 10.3611 15.627L9.7271 18.181C9.6431 18.522 9.33605 18.7501 9.00005 18.7501C8.93905 18.7501 8.87916 18.7431 8.81816 18.7281C8.41616 18.6281 8.17104 18.2212 8.27104 17.8192L8.89311 15.315C7.84711 15.013 6.94593 14.5792 6.18193 14.0702L4.62309 16.4151C4.47809 16.6321 4.24012 16.7501 3.99712 16.7501C3.85412 16.7501 3.71106 16.7091 3.58306 16.6251C3.23806 16.3961 3.14509 15.9301 3.37309 15.5851L4.99199 13.149C3.02099 11.35 2.29894 9.27415 2.28594 9.23715C2.15494 8.84415 2.36803 8.41918 2.76103 8.28818C3.15803 8.15718 3.57803 8.3701 3.70903 8.7601C3.75503 8.8951 4.45613 10.85 6.38213 12.39C6.38613 12.392 6.39011 12.3921 6.39311 12.3951C6.40311 12.4021 6.40902 12.413 6.41802 12.42C7.69202 13.427 9.49112 14.2491 11.9971 14.2491C14.5031 14.2491 16.302 13.426 17.576 12.42C17.586 12.413 17.5911 12.4011 17.6011 12.3951C17.6051 12.3931 17.6091 12.393 17.6121 12.39C19.5381 10.85 20.239 8.8951 20.285 8.7601C20.419 8.3681 20.8442 8.16015 21.2352 8.28915C21.6272 8.42115 21.8381 8.84417 21.7081 9.23617C21.6991 9.27417 20.9772 11.351 19.0062 13.149Z" fill="currentColor"/>
</svg>

<svg xmlns="http://www.w3.org/2000/svg" width="24" height="24" fill="none"><path fill="currentColor" d="m19.006 13.149 1.619 2.436a.75.75 0 0 1-1.25.83l-1.559-2.345a9.67 9.67 0 0 1-2.711 1.245l.622 2.504a.75.75 0 1 1-1.456.362l-.634-2.554a11.77 11.77 0 0 1-1.638.123c-.58 0-1.119-.051-1.638-.123l-.634 2.554a.75.75 0 1 1-1.456-.362l.622-2.504a9.742 9.742 0 0 1-2.711-1.245l-1.559 2.345a.752.752 0 0 1-1.04.21.751.751 0 0 1-.21-1.04l1.619-2.436C3.021 11.35 2.299 9.274 2.286 9.237a.75.75 0 0 1 1.423-.477c.046.135.747 2.09 2.673 3.63.004.002.008.002.011.005.01.007.016.018.025.025 1.274 1.007 3.073 1.83 5.58 1.83 2.505 0 4.304-.824 5.578-1.83.01-.007.015-.019.025-.025.004-.002.008-.002.011-.005 1.926-1.54 2.627-3.495 2.673-3.63a.75.75 0 0 1 1.423.476c-.009.038-.73 2.115-2.702 3.913Z"/></svg>
